X:1
T:Si tu te plains
T:Si tu te plains
T:Tielman Susato
C:Tielman Susato
%%score [ 1 [ 2 3 ] 4 ]
L:1/8
Q:1/4=80
M:2/2
K:F
V:1 treble nm="Superius" snm="S"
V:2 treble-8 nm="Tenor 1" snm="T 1"
V:3 treble-8 nm="Tenor 2" snm="T 2"
V:4 bass nm="Bass" snm="B"
V:1
 z4 F4 | F2 G2 A4 | z8 | F4 F2 G2 | A6 A2 | G2 A2 B3 G | G4 z2 G2 | G2 G2 A4- | A2 G2 F3 E/D/ | %9
w: Si|tu te plains,||si tu te|plains d'a-|mours tant seul- le-|ment et|que de moy|* as- sez _ _|
w: |||||||||
 C2 C2 G2 G2 | A2 G3 F F2- | F2 E2 F4- | F4 z4 | F4 F2 G2 | A4 z4 | z4 F4 | F2 G2 A4- | %17
w: _ tu te con-|ten- * * *|* * te,||vis en es-|poir,|vis|en es- poir|
w: ||||||||
 A2 A2 G2 A2 | B3 G G4 | z2 G2 G2 G2 | A6 G2 | F3 E/D/ C2 C2 | G2 G2 A2 G2- | GF F4 E2 |: F4 z4 | %25
w: * d'a- voir al-|le- ge- ment,|et d'ob- te-|nir ce|où _ _ est ton|_ en- ten- *||te,|
w: |||||||2.res.|
 A4 F2 G2 | A6 G2 | c3 B A2 G2 | A2 B3 B A2- | A2 G2 A3 G/F/ | G4 z2 A2 | B3 A G2 A2- | AG F2 B4- | %33
w: car non- ob-|stant qu'à|t'ay- mer je con-|sen- * * *||te, l'hon-|neur y veult main|* tes- fois con-|
w: ||||||||
 B2 G2 G4 | E4 z2 C2 | D2 E2 F4 | z2 F2 F2 G2 | A3 G A2 B2 | c3 B AG d2- | dc c4 B2 | c4 z2 c2 | %41
w: * tre- di-|re, mais|pos- si- bl'est,|mais pos- si-|bl'est qu'ap- pres la|lon- gue'at- ten- * *||te, a-|
w: ||||||||
 c2 B2 A2 z A | A2 G2 F3 E/D/ | C4 z4 | z4 z2 E2 | E2 E2 F2 G2 | A3 G F3 E | D2 C2 z2 G2 | %48
w: voir pour- ras, a-|voir pour- ras, _ _|_|le|bien que tu de-|si- * * *|* res, le|
w: |||||||
 G2 G2 A2 G2- | GF F4 E2 :| F8 |] %51
w: bien que tu de-|* * si- *|res.|
w: |||
V:2
 f4 d2 c2 | f2 ed cB AG | F2 f2 d2 B2 | f2 z c d2 e2 | f2 f2 e2 f2 | g2 f2 d3 c/d/ | e2 e2 f2 ed | %7
w: Si tu te|plains, _ _ _ _ _ _|_ si tu te|plains, si tu te|plains d'a- mours tant|seul- le- ment, * *|* tant seul- le- *|
w: |||||||
 e2 e2 f2 F2 | F2 G2 A2 F2 | f2 f2 e4 | c2 d4 B2 | c4 A4 | z4 f4 | d2 c2 f2 ed | cB AG F2 f2 | %15
w: ment et que de|moy as- sez tu|te con ten-||* te,|vis|en es- poir, _ _|_ _ _ _ _ vis|
w: ||||||||
 d2 B2 f2 z c | d2 e2 f2 f2 | e2 f2 g2 f2 | d3 c/d/ e2 e2 | f2 ed e2 e2 | f2 F2 F2 G2 | %21
w: en es- poir, vis|en es- poir d'a-|voir al- le- ge|ment, _ _ _ al-|le- * * * ge-|ment, et d'ob- te-|
w: ||||||
 A2 F2 f2 f2 | e4 c2 d2- | d2 B2 c4 |: A2 f2 d2 e2 | f2 c2 d2 e2 | f2 c2 f2 e2 | c2 c2 d2 e2 | %28
w: nir ce où est|ton en- ten-||te, car non ob-|stant, car non ob-|stant qu'à t'ay- mer|je con sen- te,|
w: |||2.res. * * *||||
 f2 f4 f2 | d3 e f4 | e2 e2 f3 e | d4 e2 c2 | d4 f4- | f2 e2 d4 | c4 z4 | z2 G2 A2 B2 | %36
w: l'hon- neur y|veult _ _|main- tes- fois _|_ con- tre-|di- *||re,|mais pos- si-|
w: ||||||||
 c2 c2 d2 e2 | f3 e d4 | c2 e2 e2 f2 | a2 f2 g4 | e2 g2 g2 f2 | e2 dc d4 | c4 z2 A2 | A2 A2 B2 c2 | %44
w: bl'est qu'ap- pres la|lon- * gue'at|ten- * te, la|lon- gue'at- ten-|* * te, a-|voir _ _ pour-|ras, le|bien que tu de-|
w: ||||||||
 d4 c4 | A2 A2 A2 B2 | c4 d3 c | BA G2 F2 z2 | G2 c2 c2 d2- | d2 B2 c4 :| A8 |] %51
w: si- res,|le bien que tu|de- si- *|* * * res,|le bien que tu|* de- si-|res.|
w: |||||||
V:3
 z8 | z8 | F4 F2 G2 | A4 z2 c2 | A2 F2 c4- | c2 c2 B4 | c4 d2 c2 | c4 z2 c2 | c2 c2 d2 cB | %9
w: ||Si tu te|plains, si|tu te plains|* d'a- mours|tant seul- le-|ment et|que de moy as- *|
w: |||||||||
 A2 F2 G2 c2- | c2 B2 A2 GF | G4 F4- | F4 z4 | z8 | z4 F4 | F2 G2 A4 | z2 c2 A2 F2 | c6 c2 | %18
w: sez tu te con-|* ten- * * *|* te,|||vis|en es- poir|d'a- voir al-|le- ge-|
w: |||||||||
 B4 c4 | d2 c2 c4 | z2 c2 c2 c2 | d2 cB A2 F2 | G2 c4 B2 | A2 GF G4 |: F4 z2 c2- | c2 A2 B4 | %26
w: ment, al-|le- ge- ment,|et d'ob- te-|nir ce _ où est|ton en- ten-||te, car|* non- ob-|
w: ||||||2.res. *||
 c2 A2 F2 G2 | A4 z2 G2 | d3 d c2 A2 | B4 A4 | z2 c2 d2 c2 | B4 c3 B | A4 d4 | %33
w: stant qu'à t'ay- *|mer, qu'à|t'ay- mer je con|sen- te,|l'hon- neur y|veult main- tes-|fois con-|
w: |||||||
"^-natural" d2 c4 B2 | c4 c3 B | A2 G2 z2 F2 | G2 A2 B4 | z2 F2 F2 G2 | A3 B c2 d2 | e2 c2 d4 | %40
w: tre di- *|re, mais pos-|si- bl'est, mais|pos- si- bl'est|qu'ap- pres la|lon _ _ gue'at-|ten- * *|
w: |||||||
 c8 | z4 z2 f2 | f2 e2 d2 cB | A2 c2 B2 A2- | A2 G2 A4 | z8 | z2 A2 A2 A2 | B2 c2 d4 | c3 B A2 B2 | %49
w: te,|a-|voir pour- ras, _ _|_ a- voir pour-|* * ras,||le bien que|tu de- si-||
w: |||||||||
 A2 GF G4 :| F8 |] %51
w: |res.|
w: ||
V:4
 z4 F,4 | D,2 C,2 F,3 E, | D,C, B,,3 A,, G,,2 | F,,2 F,2 D,2 C,2 | F,4 z2 F,2 | E,2 F,2 G,3 C, | %6
w: Si|tu te plains, _|_ _ _ _ _|* si tu te|plains d'a-|mours tant seul- le-|
w: ||||||
 C,4 z2 C,2 | C,2 C,2 F,4- | F,2 E,2 D,2 F,2- | F,2 E,D, C,2 C,2 | F,2 B,,2 D,4 | C,4 F,,4- | %12
w: ment et|que de moy|* as- sez tu|* te _ _ con-|ten- * *|* te,|
w: ||||||
 F,,4 z4 | F,4 D,2 C,2 | F,3 E, D,C, B,,2- | B,,A,, G,,2 F,,2 F,2 | D,2 C,2 F,4 | z2 F,2 E,2 F,2 | %18
w: |vis en es-|poir, _ _ _ _|_ _ _ _ vis|en es- poir|d'a- voir al-|
w: ||||||
 G,3 C, C,4 | z2 C,2 C,2 C,2 | F,6 E,2 | D,2 F,4 E,D, | C,2 C,2 F,2 B,,2 | D,4 C,4 |: F,,4 z4 | %25
w: le- ge- ment,|et d'ob- te-|nir ce|où est ton _|_ en- ten- *||te,|
w: ||||||2.res.|
 F,4 D,2 G,2 | F,6 C,2- | C,2 F,4 E,2 | D,2 B,,2 F,4 | G,4 F,3 E,/D,/ | C,4 z2 F,2 | %31
w: car non- ob-|stant qu'à|* t'ay- mer|je con sen-||te, l'hon-|
w: ||||||
 G,3 F, E,2 F,2- | F,E, D,2 B,,4- | B,,2 C,2 G,4 | C,4 F,4- | F,2 E,2 D,4 | C,2 F,2 D,2 G,2 | %37
w: neur y veult main-|* tes- fois con-|* tre di-|re,- con-|* tre- di-|re, mais pos- si-|
w: ||||||
 F,2 D,2 D,2 B,,2 | A,,2 A,2 A,2 D,2 | A,2 A,2 G,4 | C,4 z4 | z8 | z4 z2 F,2 | F,3 E, D,2 C,2 | %44
w: bl'est, mais pos- si-|bl'est qu'ap- pres la|lon- gue'at- ten-|te,||a-|voir _ _ pour-|
w: |||||||
 B,,4 A,,4- | A,,4 z4 | z4 D,2 D,2 | D,2 E,2 F,2 G,2 | C,2 C,2 F,2 B,,2 | D,4 C,4 :| F,,8 |] %51
w: * ras,||le bien|que tu de- si-|re, que tu de-|si- *|res.|
w: |||||||

